X:1
T:- # -
%%score [ 1 2 3 4 ]
L:1/8
M:4/4
K:C
V:1 treble nm="Sopran" snm=" "
V:2 treble-8 nm="Alt"
V:3 treble-8 nm="Tenor"
V:4 bass nm="Baß"
V:1
"^Christobal de Morales" z8 | z8 | z4 A4 |"^V.  Signum crucis" A4 B4 |"^5" A2 c3 B A2 | %5
w: ||Sig-|num cru-|cis mi- * *|
 G4 F2"^1546" A2- | A2 G2 F4- | F4 E2 G2 | A4 B4 |"^10" c4 B2 A2- | A2 G2 A2 c2 | B2 A4 ^G2 | %12
w: ra- * *|* * bi-|* ~le, sig-|num cru-|cis mi- ra-|||
 A6 G2 | F3 E/D/ C2 E2 |"^15" D2 D2 F2 C2 | G4 F2 G2 | A4 D4 | z2 A2 c2 B2 | d4 A4 |"^20" c4 B4- | %20
w: |* * * * bi-|~le, o- lim ~per|or- bem re-|ni- ~tens,|o- lim per|or- bem|re- ni-|
 B2 A2 B2 c2 | B2 A4 ^G2 | A6 GF | E2 G3 F/E/ F2 |"^25" G8- | G8 | z4 c4 | B2 G2 B3 c | d2 c4 B2 | %29
w: ||||~tens,||in|quo pe- pen- *|dit in- no-|
"^30" c4 z2 c2 | B2 G2 B3 c | d4 B2 d2- | dc c4 B2 | c8 |"^35" z2 A2 A2 A2 | c4 A4- | A2 c3 B B2- | %37
w: cens, in|quo pe- pen- *|\- dit in-|* * * no-|~cens,|Chri- stus red-|emp- tor|* om- * *|
 BA A4 ^G2 | A8- |"^40" A8- | A8- | A8- | A8 |"^Secunda pars" z8 | z8 | z8 | A8 | G4 A4 | F6 E2 | %49
w: * * * ni-|~um.||||||||Haec|ar- bor|est sub-|
"^50" F2 A4 ^G2 | A3 G F4 | E4 z2 A2 | B2 B2 c4 | A2 c2 B4 |"^55" A2 A2 B2 B2 | c4 A2 c2 | %56
w: li- * *|* * mi-|or ce-|dris quas ha-|bet Li- ba-|nus, ce- dris quas|ha- bet Li-|
 B2 A4 ^G2 | A4 z2 c2 | c2 c2 A2 c2 |"^60" B2 A2 G4 | z2 A2 A2 A2 | F2 F2 G3 F | E2 c2 c2 c2 | %63
w: * * ba-|~nus, quae|po- ma ne- scit|no- xi- a,|quae po- ma|ne- scit no- xi-|\-a, quae po- ma|
 A2 A2 B4- |"^65" B2 B2 G4 | A2 G4 ^F2 | G4 G4- | G2 c4 B2 | c4 z2 G2 |"^70" A2 B2 c4- | c2 B2 A4 | %71
w: ne- scit no-|* xi- *||* a,|* no- xi-|\-a, sed|fe- rae vi-|* tae prae|
 G2 c4 B2 | c3 B A2 G2 | F4 E2 G2 |"^75" A2 B2 c4- | c2 B2 A4 | G4 A2 B2- | BA A4 ^G2 | A8- | A8 |] %80
w: ||mi- a, sed|fe- rae vi-||tae prae *|* * * mi-|a.||
V:2
 z8 | z8 | z8 | e4 e4 | f4 e2 f2- | f2 e2 d3 c | B2 B2 A2 c2 | d4 e4 | f2 e2 d4 | c2 e2 d3 c | %10
w: |||Sig- num|cru- cis mi-|* * ra- *|* bi- ~le, sig-|num cru-|||
w: ||||||||||
 B4 A2 a2 | g2 f2 e4 | z2 A2 c2 B2 | d4 A2 c2 | B4 A4 | G4 z2 d2 | f2 e2 g4 | d2 f2 e4 | d4 z4 | %19
w: * ~cis, mi-|ra- bi- ~le,|o- lim per|or- bem re-|ni- *|~~tens, o-|lim per or-|bem re- ni-|\-tens,|
w: |||||||||
 z4 d4 | g2 c2 g2 e2 | f6 e2 | d2 c4 B2 | c6 d2 | e8 | d4 z4 | f4 e2 c2 | e3 f g4- | g2 e2 d4 | %29
w: o-|lim per or *|||~bem re-|ni-|\-tens,|in quo pe-|pen- dit in-|* * no-|
w: ||||||||||
 c8 | z2 c2 B2 G2 | B3 c d4- | d2 g3 f g2 | e2 f4 e2 | f8 | e4 e2 e2 | e4 e2 e2 | f4 e4- | e8 | %39
w: ~cens,|in quo pe-|\-pen \-~ dit|* in * *|* * no-|~cens,|Chri- stus red-|emp- tor om-|\-ni- ~um,||
w: ||||||||||
 z2 e2 e2 e2 | f6 d2- | d2 e2 f4 | e8 | z8 | z8 | z4 e4- | e4 d4 | e4 c4- | c2 B2 c3 B | A2 c2 B4 | %50
w: Chri- stus red-|emp- tor|* om- ni-|~um.|||Haec|* ar-|bor est|* sub- li- *|* * mi-|
w: |||||||||||
 A4 z2 d2 | e2 e2 f4 | d4 e2 f2- | fe a4 g2 | a4 g4 | e4 a4 | g2 f2 e4 | c8 | z2 f2 f2 f2 | %59
w: \-or~ ce-|dris quas ha-|bet Li *||* ba-|nus, Li-|* * ba-|~nus,|quae po- ma|
w: |||||||||
 d2 f2 e3 d | c6 A2 | d2 c4 d2 | G4 z2 f2 | f2 f2 d4- | d2 d2 e2 d2- | d2 c2 d3 c | B2 e4 d2 | %67
w: ne- scit no- xi-|a, ne-|scit no- xi-|* quae|po- ma ne-|* scit no- *|||
w: |||\-a, *|||||
 e3 f g4 | e8 | z2 d2 e2 f2 | g4 c2 d2 | B2 c2 d4 | c4 z4 | z8 | z2 d2 e2 f2 | g4 c3 d | e8 | %77
w: * * xi-|\-a,|sed fe- rae|vi- tae prae-|* * mi-|~a,||sed fe- rae|vi- * *|tae|
w: ||||||||||
 f2 f2 e3 d | c4 f4 | e8 |] %80
w: prae- mi~- ~a. *|||
w: |||
V:3
 e4 e4 | f4 e2 f2- | f2 ed c2 A2- | AB c4 B2 | c8- | c4 A4 | z2 G2 A4 | B4 c2 e2 | d2 c2 B4 | %9
w: Sig- num|cru- * *||||* ~cis,|sig- num|cru- cis mi-|ra- * bi-|
 A4 f4 | e3 d cdec | d2 c2 B4 | A2 F2 E4 | A4 z4 | z4 A4 | c2 B2 d4 | A2 c2 B4- | B2 A2 z4 | %18
w: ~le, sig-|num * * * * *|* cru- cis|mi- ra- bi-|~le,|o-|lim per or-|bem re- ni-|* ~~tens,|
 z2 d2 f4- | f2 e2 g4 | d2 f2 e4 | d3 c B4 | A4 d4 | G4 A4 | G2 c2 B2 G2 | B3 c d2 c2- | c2 B2 c4 | %27
w: o- lim|* per or-|bem re- *|* * ni-|~tens, re-|ni- *|tens, in quo pe-|\-pen- dit in- *|* no- cens,|
 z8 | z4 g4 | e2 c2 e3 f | g8- | g8 | f2 e2 d4 | c8- | c4 z2 A2 | A2 A2 c4 | A6 B2 | c2 d2 B4 | %38
w: |in|quo pe- pen- *|dit||in- * no-|~cens,|* Chri-|stus red- emp-|tor om-|* * ni-|
 A4 z2 A2 | A2 A2 c4 | A6 f2- | f2 e2 d4 | c8 | e8 | d4 e4 | c4 B4 | c3 B A2 A2 | B4 A4- | %48
w: ~um, Chri-|stus red- emp-|tor om-|* * ni-|~um.|Haec|ar- bor|est sub-|li- * * mi-|or, sub-|
 A2 GF G2 G2 | A4 z4 | z2 A2 A2 B2 | c4 A2 c2 | B4 A4 | z2 c2 d2 e2 | f3 e d4 | c4 f3 e | %56
w: * * * li- mi-|or|ce- dris quas|ha- bet Li-|ba- nus,|ce- dris quas|ha~~- * bet|Li- * *|
 d2 c2 B4 | A8- | A4 z4 | z4 c4 | c2 c2 A2 c2 | B2 A2 G2 B2 | c2 c2 A2 A2 | d2 d2 B4 | %64
w: * * ba-|~nus,||quae|po- ma ne- scit|no- xi- a, quae|po- ma ne- scit|no- xi- a,|
 z2 B2 c2 B2 | A2 c2 B2 A2 | G2 c4 B2 | c4 d4 | c3 d e4 | z4 c4 | d2 e2 f4 | d2 g2 f2 d2 | %72
w: quae po- ma|ne- scit no- xi-|a, no- *|xi- *|\-a, * *|sed|fe- rae vi-|tae prae- * *|
 efge f2 e2- | e2 d2 e4 | z4 c4 | d2 e2 f4 | e3 d c2 B2 | c2 d2 B4 | A4 d4 | c8 |] %80
w: |* mi- a,|sed|fe- rae vi-|tae * * prae-|~- * *|mi- *|~a.|
V:4
 z8 | A,4 A,4 | _B,4 A,2 C2- | CB, A,2 G,4 | F,3 E, C,4 | z2 C,2 D,4 | E,4 F,4 | D,4 C,4 | %8
w: |Sig- num|cru- * *||* * ~cis,|sig- num|cru- *|cis mi-|
 F,2 A,4 G,2 | A,4 D,4 | E,2 E,2 F,2 C,2 | G,2 A,2 E,4 | A,4 z4 | D,4 F,2 E,2 | G,4 D,2 F,2 | %15
w: ra- * bi-|le, sig-|num cru- cis mi-|ra- * bi-|\-le,|o- lim per|or- bem re-|
 E,4 D,2 G,2 | F,2 A,2 G,4- | G,2 D,2 A,2 G,2 | B,3 C D4 | A,2 C2 G,4- | G,2 F,2 G,2 A,2 | %21
w: ni- tens, re-|* ni- tens,|* o- lim per|or- * *|bem re *|* * * ni-|
 D,6"^© Michael Wendel 2005\nThis edition may be freely duplicated, distributed, performed or recorded for non-profit performance or use.\n" E,2 | %22
w: tens, re-|
 F,3 E, D,4 | C,4 z2 F,2 | E,2 C,2 E,3 F, | G,6 E,2 | D,4 C,4 | z2 C2 G,3 A, | B,2 C2 G,4 | %29
w: * * ni-|tens, in|quo pe- pen- *||* dit|in- no- *|* * cens,|
 z2 F,2 E,2 C,2 | E,3 F, G,4- | G,4 G,3 A, | _B,2 C2 G,4 | C,8 | F,8 | z2 A,2 A,2 A,2 | %36
w: in quo pe-|pen- * dit|* in- *||no-|~cens,|Chri- stus red-|
 C4 A,2 G,2 | F,2 D,2 E,4 | z2 A,2 A,2 A,2 | C4 A,3 G, | F,3 E, D,4- | D,2 C,2 D,4 | A,8 | z8 | %44
w: emp- tor om-|\-ni- * um,|Chri- stus red-|emp- tor *|om * *|* * ni-|~um.||
 z4 A,4- | A,4 G,4 | A,4 F,4 | E,4 F,3 E, | D,2 D,2 C,4 | z2 C,2 D,2 E,2 | F,4 D,4 | %51
w: Haec|* ar-|bor est|sub- li- *|* mi- or|ce- dris quas|ha- bet|
 A,3 G, F,2 A,2- | A,2 G,2 A,4- | A,4 z4 | F,4 G,2 G,2 | A,4 F,4 | G,2 A,2 E,4 | F,8- | F,4 z4 | %59
w: Li- * * *|* ba- nus,||ce- dris quas|ha- bet|Li- * ba-|~nus,||
 z8 | F,4 F,2 F,2 | D,2 F,2 E,2 D,2 | C,4 F,4 | z4 G,4 | G,2 G,2 E,2 G,2 | F,2 E,2 D,4 | %66
w: |quae po- ma|ne- scit no *|\-xi- a,|quae|po- ma ne- scit|no * *|
 E,2 C,2 G,4 | C,4 G,4 | A,3 B, C4- | C2 B,2 A,4 | G,4 F,4 | G,2 E,2 F,2 G,2 | C,4 z2 G,2 | %73
w: * * xi-|a, sed|fe- rae vi-|* tae prae-||* * * mi-|~a, sed|
 A,2 B,2 C4- | C2 B,2 A,4 | G,4 F,G,A,B, | C3 B, A,2 G,2 | F,2 D,2 E,4 | F,4 D,4 | A,8 |] %80
w: fe- rae vi-|* tae prae-|||* * mi-||~a.|

